assets/logo-airwsap-grey.svg

<svg height="44" viewBox="0 0 198 44" width="198" xmlns="http://www.w3.org/2000/svg"><g fill="#282138" fill-rule="evenodd"><path d="m148.531981 28.2071716c-.370154-.9597361-.616025-1.5406701-.820542-2.1358985-1.431848-4.1654822-2.901229-8.3193503-4.25082-12.5109645-.363637-1.1283655-.966177-1.3796345-2.034388-1.3572995-1.068436.0223351-1.819757.1067615-2.218005 1.3691371-1.309586 4.1480609-2.765482 8.2505584-4.173732 12.3675736-.196651.5749036-.440949 1.1339492-.832229 2.1312081-.371053-.9671066-.590629-1.4763452-.764132-2.0003249-1.367571-4.1304162-2.707498-8.2699898-4.111702-12.3878984-.18092-.5304569-.621869-1.2851574-1.046187-1.3610965-1.08664-.194538-2.232163-.0649949-3.567595-.0649949 2.558043 7.1679797 5.013153 13.9808325 7.407807 20.8146802.428363 1.2221726 1.34577.832203 2.153727.901665.852681.0730355 1.537253.013401 1.882686-1.0399188 1.030229-3.141198 2.17373-6.2455432 3.274753-9.3635127.54568-1.5453604 1.094956-3.0891574 1.805823-5.0939492.403192 1.0149035.627038 1.5281624.812902 2.0548223 1.388921 3.9354315 2.801216 7.8630457 4.133952 11.8174619.370829 1.1002234.766829 1.7470457 2.143165 1.6813807 1.247557-.0598578 1.963593-.2572995 2.416004-1.5895837 2.088102-6.1508427 4.30813-12.2574619 6.47287-18.3826193.183166-.5181726.308349-1.0568934.494438-1.7043858-.65985-.052264-1.121925-.0513706-1.569841-.1306599-1.761324-.3117969-2.619174.4013604-3.04102 2.1479594-.515339 2.1341117-1.337904 4.1954112-2.034837 6.2855228-.801215 2.4025787-1.61052 4.8022538-2.533097 7.5516955"/><path d="m108.473884 28.5194152c-.414878.492264-1.08192 1.2840406-1.741995 2.06733 2.952694 3.1894416 9.118338 4.6320609 12.974506 3.0956345 2.640075-1.0519797 3.860438-3.092731 3.965843-5.8084467.101585-2.6259289-1.240815-4.4214416-3.641986-5.3800609-1.401058-.5592691-2.887294-.9050152-4.321389-1.3876751-1.045288-.352-2.260482-.5501117-3.043941-1.2250762-.719183-.6197969-1.398361-1.8437563-1.283966-2.693604.10136-.756264 1.216542-1.7139899 2.062706-1.9494011 1.045961-.2912487 2.3315-.1168121 3.412971.1981117 1.418588.413198 2.738738 1.1600812 4.18879 1.8022132.61153-.8516345 1.21025-1.6849543 1.798856-2.504203-2.820769-2.5493198-7.793918-3.599066-11.246445-2.4472488-2.538041.8469442-3.964495 2.6413401-4.164517 5.2386802-.201371 2.6158782.886842 4.5889544 3.381058 5.7342945 1.312508.6028223 2.746603.9449949 4.127659 1.3988426 1.104845.3631675 2.241153.6501726 3.312061 1.0939695 1.134511.470599 1.69907 1.3914721 1.543546 2.6442437-.161142 1.2969949-.926397 2.1265178-2.191035 2.3987817-.672436.144731-1.446007.2707005-2.07664.082863-2.248795-.6691574-4.456236-1.4763452-7.056082-2.3592488"/><path d="m77.3313834 12.4865076v21.3735026h3.6963746v-2.006132c0-5.5594112.0002247-11.1188224 0-16.6782335 0-3.2296447-.0584336-3.2810153-3.3259955-2.8731777-.1049557.0131777-.2009216.0973807-.3703791.1840406"/><path d="m30.9967989 35.0875208c-4.0460772 1.2692995-8.9300023 2.8010355-13.4215233 4.2101523 1.2907083 1.3235736 2.9549421 3.0308629 4.576025 4.6934822 3.1167582-3.1371776 6.3056594-6.3469441 8.8454983-8.9036345"/><path d="m38.3070443 22.6260284c-6.2580137-5.2598985-24.0395823-6.2080203-30.27646995-1.6565888.26879455.083533.46319864.1900711.66209761.1994518 6.41331214.3010761 12.41646534 1.9929543 17.98541204 5.1884264.3382406.1940913.7868309.404934 1.1356345.3421726 3.7406493-.6725077 7.2518343-1.9284061 10.4933258-4.073462m-38.3070443-.5123655c7.42219069-7.3815025 14.7601022-14.67924869 22.0110375-21.89033498 7.2781294 7.24548223 14.6430102 14.57762438 22.0056435 21.90730968-11.2001475 10.6960203-31.7804608 11.3276548-44.016681-.0169747"/><path d="m148.531981 28.2071716c.922577-2.7494417 1.731882-5.1491168 2.533097-7.5516955.696933-2.0901116 1.519498-4.1514111 2.034837-6.2855228.421846-1.746599 1.279696-2.4597563 3.04102-2.1479594.447916.0792893.909991.0783959 1.569841.1306599-.186089.6474924-.311272 1.1862132-.494438 1.7043858-2.16474 6.1251574-4.384768 12.2317766-6.47287 18.3826193-.452411 1.3322842-1.168447 1.5297259-2.416004 1.5895837-1.376336.065665-1.772336-.5811573-2.143165-1.6813807-1.332736-3.9544162-2.745031-7.8820304-4.133952-11.8174619-.185864-.5266599-.40971-1.0399188-.812902-2.0548223-.710867 2.0047918-1.260143 3.5485888-1.805823 5.0939492-1.101023 3.1179695-2.244524 6.2223147-3.274753 9.3635127-.345433 1.0533198-1.030005 1.1129543-1.882686 1.0399188-.807957-.069462-1.725364.3205076-2.153727-.901665-2.394654-6.8338477-4.849764-13.6467005-7.407807-20.8146802 1.335432 0 2.480955-.1295431 3.567595.0649949.424318.0759391.865267.8306396 1.046187 1.3610965 1.404204 4.1179086 2.744131 8.2574822 4.111702 12.3878984.173503.5239797.393079 1.0332183.764132 2.0003249.39128-.9972589.635578-1.5563045.832229-2.1312081 1.40825-4.1170152 2.864146-8.2195127 4.173732-12.3675736.398248-1.2623756 1.149569-1.346802 2.218005-1.3691371 1.068211-.022335 1.670751.228934 2.034388 1.3572995 1.349591 4.1916142 2.818972 8.3454823 4.25082 12.5109645.204517.5952284.450388 1.1761624.820542 2.1358985"/><path d="m94.0096808 23.4504142c1.3176777-.1608122 2.6791805-.1668426 3.9426947-.5195127 1.7628967-.4920406 2.7546945-2.1399188 2.5998455-3.8525685-.154849-1.7142132-1.2572212-2.951797-3.0864176-3.2685076-1.0223632-.1771168-2.0800113-.1990051-3.1226016-.2052589-4.1415936-.0256853-4.1418184-.013401-4.1418184 4.0216447 0 3.6881827 0 3.6881827 3.8082974 3.824203m10.3169012 10.2877361c-3.883587.7062335-4.085407.6247106-6.0166378-2.2982742-.4476913-.677868-1.0140477-1.3063756-1.3232963-2.0416446-1.0441635-2.4825381-2.9225789-3.0974213-5.4471351-2.8048325-1.0789988.1248528-1.3945403.4601015-1.3659977 1.4712081.053714 1.8966904.0155074 3.7960609.0155074 5.8015228h-3.6862611v-21.6421928c4.4775868.1322233 8.9677594-.6740711 13.337244.6264974 2.8454916.8469442 4.5209626 3.3837564 4.5870376 6.3447107.066075 2.9754721-1.272729 5.099533-4.010568 6.3348832-.313743.1413807-.629734.277401-1.2277794.5405076 1.7343544 2.5881828 3.4147694 5.0959594 5.1378864 7.6676143"/><path d="m58.9363519 26.2685584c2.4483677-.5416244 4.5250079-1.0008325 6.8081884-1.5060508-.9729194-2.5323452-1.9316799-5.0278375-2.8906652-7.5235533-.1472077-.0011167-.2946401-.0022335-.4420726-.0033502-1.1284427 2.9330355-2.2571101 5.8662944-3.4754506 9.0329543m14.3456731 7.5816243c-3.7159274.3756752-3.7159274.3756752-5.0702384-2.8709441-1.2017094-2.8809949-1.3931918-2.9911066-4.5317503-2.4834315-2.6133303.4225787-5.1340658 1.3430051-6.6333371 3.5054822-1.4347696 2.0697868-3.1542906 2.204467-5.3967923 1.851797.1283292-.4292792.2135074-.8561015.3798184-1.2485279 2.7158139-6.4070254 5.4785993-12.7946193 8.1332826-19.2264366.5119683-1.2398172 1.3531873-1.2286497 2.3613916-1.1967106.9596595.030599 1.9035869-.2010153 2.4267923 1.0937462 2.6940136 6.6661116 5.4797231 13.2960406 8.2276754 19.940934.0622543.1509847.0559614.3301116.1031578.6340913"/><path d="m169.853525 26.2665036c-1.223735-3.1744772-2.368134-6.142132-3.512309-9.1097868-.134622.009604-.268795.0189847-.403192.0285888-.961682 2.5256447-1.92314 5.0515127-2.886844 7.5822944 2.319813.5110254 4.39533.9684467 6.802345 1.4989036m7.371398 7.6133401c-2.131478.2119593-3.806275.3624974-5.31521-1.666863-2.176427-2.9274518-5.542876-3.942802-9.172277-3.7739492-.527476.0245685-1.120352.6008122-1.50871 1.065604-.35667.4268224-.478482 1.0475127-.702777 1.58333-1.321049 3.1532589-1.321049 3.1532589-5.021469 2.7617259.160693-.4989645.279358-.976934.465222-1.4278782 2.56456-6.2299086 5.183285-12.4383756 7.672781-18.6977665.518935-1.3050355 1.272054-1.5413401 2.506801-1.5274924 1.256547.0142944 2.089001.1565685 2.659852 1.562335 2.509723 6.1836752 5.184634 12.3007919 7.793469 18.4447107.220699.519736.394652 1.0593503.622318 1.6762437"/><path d="m187.317327 23.3569421c1.103496-.0527106 2.219802-.0192081 3.308241-.1764467 2.28363-.3296649 3.35656-1.6476548 3.328467-3.9182335-.027419-2.2169746-1.027982-3.274538-3.431625-3.5392081-.923026-.1016244-1.858413-.118599-2.788407-.1221726-4.12721-.0158578-4.12721-.0091573-4.12721 4.0826193 0 3.6314518 0 3.6314518 3.710534 3.6734416m-3.710309 10.5271675h-3.648279v-21.8630862c4.212838.1860507 8.425451.088 12.549289.6421319 3.44983.4634518 5.186656 2.9424163 5.368025 6.3469442.169907 3.1863147-1.554109 6.0757969-4.746606 6.9044264-2.436007.6325279-5.060574.6841218-7.605357.7180711-1.565571.0207715-2.050345.4777461-1.944715 1.9902741.119788 1.71667.027643 3.4480812.027643 5.2612385"/><path d="m108.473884 28.5194152c2.599846.8829036 4.807287 1.6900914 7.056082 2.3592488.630633.1878375 1.404204.061868 2.07664-.082863 1.264638-.2722639 2.029893-1.1017868 2.191035-2.3987817.155524-1.2527716-.409035-2.1736447-1.543546-2.6442437-1.070908-.4437969-2.207216-.730802-3.312061-1.0939695-1.381056-.4538477-2.815151-.7960203-4.127659-1.3988426-2.494216-1.1453401-3.582429-3.1184163-3.381058-5.7342945.200022-2.5973401 1.626476-4.391736 4.164517-5.2386802 3.452527-1.1518172 8.425676-.102071 11.246445 2.4472488-.588606.8192487-1.187326 1.6525685-1.798856 2.504203-1.450052-.642132-2.770202-1.3890152-4.18879-1.8022132-1.081471-.3149238-2.36701-.4893604-3.412971-.1981117-.846164.2354112-1.961346 1.1931371-2.062706 1.9494011-.114395.8498477.564783 2.0738071 1.283966 2.693604.783459.6749645 1.998653.8730762 3.043941 1.2250762 1.434095.4826599 2.920331.828406 4.321389 1.3876751 2.401171.9586193 3.743571 2.754132 3.641986 5.3800609-.105405 2.7157157-1.325768 4.756467-3.965843 5.8084467-3.856168 1.5364264-10.021812.0938071-12.974506-3.0956345.660075-.7832894 1.327117-1.575066 1.741995-2.06733"/><path d="m77.3313834 12.4865076c.1694575-.0866599.2654234-.1708629.3703791-.1840406 3.2675619-.4078376 3.3259955-.356467 3.3259955 2.8731777.0002247 5.5594111 0 11.1188223 0 16.6782335v2.006132h-3.6963746z"/><path d="m30.9967989 35.0875208c-2.5398389 2.5566904-5.7287401 5.7664569-8.8454983 8.9036345-1.6210829-1.6626193-3.2853167-3.3699086-4.576025-4.6934822 4.491521-1.4091168 9.3754461-2.9408528 13.4215233-4.2101523"/></g></svg>

<?xml version="1.0" encoding="UTF-8"?>
<svg width="198px" height="44px" viewBox="0 0 198 44" version="1.1" xmlns="http://www.w3.org/2000/svg" xmlns:xlink="http://www.w3.org/1999/xlink">
    <!-- Generator: Sketch 52.2 (67145) - http://www.bohemiancoding.com/sketch -->
    <title>Logo</title>
    <desc>Created with Sketch.</desc>
    <g id="Designs" stroke="none" stroke-width="1" fill="none" fill-rule="evenodd">
        <g id="Home" transform="translate(-381.000000, -4064.000000)" fill="#282138">
            <g id="JOIN-THE-WBTC-COMMUNITY" transform="translate(0.000000, 3815.000000)">
                <g id="SECTION---JOIN-THE-WBTC-COMMUNITY" transform="translate(130.000000, 85.000000)">
                    <g id="Logo-Airswap" transform="translate(240.000000, 136.000000)">
                        <g id="Logo" transform="translate(11.000000, 28.000000)">
                            <path d="M148.531981,28.2071716 C148.161827,27.2474355 147.915956,26.6665015 147.711439,26.0712731 C146.279591,21.9057909 144.81021,17.7519228 143.460619,13.5603086 C143.096982,12.4319431 142.494442,12.1806741 141.426231,12.2030091 C140.357795,12.2253442 139.606474,12.3097706 139.208226,13.5721462 C137.89864,17.7202071 136.442744,21.8227046 135.034494,25.9397198 C134.837843,26.5146234 134.593545,27.073669 134.202265,28.0709279 C133.831212,27.1038213 133.611636,26.5945827 133.438133,26.070603 C132.070562,21.9401868 130.730635,17.8006132 129.326431,13.6827046 C129.145511,13.1522477 128.704562,12.3975472 128.280244,12.3216081 C127.193604,12.1270701 126.048081,12.2566132 124.712649,12.2566132 C127.270692,19.4245929 129.725802,26.2374457 132.120456,33.0712934 C132.548819,34.293466 133.466226,33.9034964 134.274183,33.9729584 C135.126864,34.0459939 135.811436,33.9863594 136.156869,32.9330396 C137.187098,29.7918416 138.330599,26.6874964 139.431622,23.5695269 C139.977302,22.0241665 140.526578,20.4803695 141.237445,18.4755777 C141.640637,19.4904812 141.864483,20.0037401 142.050347,20.5304 C143.439268,24.4658315 144.851563,28.3934457 146.184299,32.3478619 C146.555128,33.4480853 146.951128,34.0949076 148.327464,34.0292426 C149.575021,33.9693848 150.291057,33.7719431 150.743468,32.4396589 C152.83157,26.2888162 155.051598,20.182197 157.216338,14.0570396 C157.399504,13.538867 157.524687,13.0001462 157.710776,12.3526538 C157.050926,12.3003898 156.588851,12.3012832 156.140935,12.2219939 C154.379611,11.910197 153.521761,12.6233543 153.099915,14.3699533 C152.584576,16.504065 151.762011,18.5653645 151.065078,20.6554761 C150.263863,23.0580548 149.454558,25.4577299 148.531981,28.2071716" id="Fill-3"></path>
                            <path d="M108.473884,28.5194152 C108.059006,29.0116792 107.391964,29.8034558 106.731889,30.5867452 C109.684583,33.7761868 115.850227,35.2188061 119.706395,33.6823797 C122.34647,32.6304 123.566833,30.5896487 123.672238,27.873933 C123.773823,25.2480041 122.431423,23.4524914 120.030252,22.4938721 C118.629194,21.934603 117.142958,21.5888569 115.708863,21.106197 C114.663575,20.754197 113.448381,20.5560853 112.664922,19.8811208 C111.945739,19.2613239 111.266561,18.0373645 111.380956,17.1875168 C111.482316,16.4312528 112.597498,15.4735269 113.443662,15.2381157 C114.489623,14.946867 115.775162,15.1213036 116.856633,15.4362274 C118.275221,15.8494254 119.595371,16.5963086 121.045423,17.2384406 C121.656953,16.3868061 122.255673,15.5534863 122.844279,14.7342376 C120.02351,12.1849178 115.050361,11.1351716 111.597834,12.2869888 C109.059793,13.133933 107.633339,14.9283289 107.433317,17.525669 C107.231946,20.1415472 108.320159,22.1146234 110.814375,23.2599635 C112.126883,23.8627858 113.560978,24.2049584 114.942034,24.6588061 C116.046879,25.0219736 117.183187,25.3089787 118.254095,25.7527756 C119.388606,26.2233746 119.953165,27.1442477 119.797641,28.3970193 C119.636499,29.6940142 118.871244,30.5235371 117.606606,30.795801 C116.93417,30.940532 116.160599,31.0665015 115.529966,30.878664 C113.281171,30.2095066 111.07373,29.4023188 108.473884,28.5194152" id="Fill-13"></path>
                            <path d="M77.3313834,12.4865076 L77.3313834,33.8600102 L81.027758,33.8600102 L81.027758,31.8538782 C81.027758,26.294467 81.0279827,20.7350558 81.027758,15.1756447 C81.027758,11.946 80.9693244,11.8946294 77.7017625,12.302467 C77.5968068,12.3156447 77.5008409,12.3998477 77.3313834,12.4865076" id="Fill-15"></path>
                            <path d="M30.9967989,35.0875208 C26.9507217,36.3568203 22.0667966,37.8885563 17.5752756,39.2976731 C18.8659839,40.6212467 20.5302177,42.328536 22.1513006,43.9911553 C25.2680588,40.8539777 28.45696,37.6442112 30.9967989,35.0875208" id="Fill-17"></path>
                            <path d="M38.3070443,22.6260284 C32.0490306,17.3661299 14.267462,16.4180081 8.03057435,20.9694396 C8.2993689,21.0529726 8.49377299,21.1595107 8.69267196,21.1688914 C15.1059841,21.4699675 21.1091373,23.1618457 26.678084,26.3573178 C27.0163246,26.5514091 27.4649149,26.7622518 27.8137185,26.6994904 C31.5543678,26.0269827 35.0655528,24.7710843 38.3070443,22.6260284 M1.0658141e-14,22.1136629 C7.42219069,14.7321604 14.7601022,7.43441421 22.0110375,0.223327919 C29.2891669,7.46881015 36.6540477,14.8009523 44.016681,22.1306376 C32.8165335,32.8266579 12.2362202,33.4582924 1.0658141e-14,22.1136629" id="Fill-19"></path>
                            <path d="M148.531981,28.2071716 C149.454558,25.4577299 150.263863,23.0580548 151.065078,20.6554761 C151.762011,18.5653645 152.584576,16.504065 153.099915,14.3699533 C153.521761,12.6233543 154.379611,11.910197 156.140935,12.2219939 C156.588851,12.3012832 157.050926,12.3003898 157.710776,12.3526538 C157.524687,13.0001462 157.399504,13.538867 157.216338,14.0570396 C155.051598,20.182197 152.83157,26.2888162 150.743468,32.4396589 C150.291057,33.7719431 149.575021,33.9693848 148.327464,34.0292426 C146.951128,34.0949076 146.555128,33.4480853 146.184299,32.3478619 C144.851563,28.3934457 143.439268,24.4658315 142.050347,20.5304 C141.864483,20.0037401 141.640637,19.4904812 141.237445,18.4755777 C140.526578,20.4803695 139.977302,22.0241665 139.431622,23.5695269 C138.330599,26.6874964 137.187098,29.7918416 136.156869,32.9330396 C135.811436,33.9863594 135.126864,34.0459939 134.274183,33.9729584 C133.466226,33.9034964 132.548819,34.293466 132.120456,33.0712934 C129.725802,26.2374457 127.270692,19.4245929 124.712649,12.2566132 C126.048081,12.2566132 127.193604,12.1270701 128.280244,12.3216081 C128.704562,12.3975472 129.145511,13.1522477 129.326431,13.6827046 C130.730635,17.8006132 132.070562,21.9401868 133.438133,26.070603 C133.611636,26.5945827 133.831212,27.1038213 134.202265,28.0709279 C134.593545,27.073669 134.837843,26.5146234 135.034494,25.9397198 C136.442744,21.8227046 137.89864,17.7202071 139.208226,13.5721462 C139.606474,12.3097706 140.357795,12.2253442 141.426231,12.2030091 C142.494442,12.1806741 143.096982,12.4319431 143.460619,13.5603086 C144.81021,17.7519228 146.279591,21.9057909 147.711439,26.0712731 C147.915956,26.6665015 148.161827,27.2474355 148.531981,28.2071716" id="Fill-22"></path>
                            <path d="M94.0096808,23.4504142 C95.3273585,23.289602 96.6888613,23.2835716 97.9523755,22.9309015 C99.7152722,22.4388609 100.70707,20.7909827 100.552221,19.078333 C100.397372,17.3641198 99.2949998,16.126536 97.4658034,15.8098254 C96.4434402,15.6327086 95.3857921,15.6108203 94.3432018,15.6045665 C90.2016082,15.5788812 90.2013834,15.5911655 90.2013834,19.6262112 C90.2013834,23.3143939 90.2013834,23.3143939 94.0096808,23.4504142 M104.326582,33.7381503 C100.442995,34.4443838 100.241175,34.3628609 98.3099442,31.4398761 C97.8622529,30.7620081 97.2958965,30.1335005 96.9866479,29.3982315 C95.9424844,26.9156934 94.064069,26.3008102 91.5395128,26.593399 C90.460514,26.7182518 90.1449725,27.0535005 90.1735151,28.0646071 C90.2272291,29.9612975 90.1890225,31.860668 90.1890225,33.8661299 L86.5027614,33.8661299 L86.5027614,12.2239371 C90.9803482,12.3561604 95.4705208,11.549866 99.8400054,12.8504345 C102.685497,13.6973787 104.360968,16.2341909 104.427043,19.1951452 C104.493118,22.1706173 103.154314,24.2946782 100.416475,25.5300284 C100.102732,25.6714091 99.786741,25.8074294 99.1886956,26.070536 C100.92305,28.6587188 102.603465,31.1664954 104.326582,33.7381503" id="Fill-24"></path>
                            <path d="M58.9363519,26.2685584 C61.3847196,25.726934 63.4613598,25.2677259 65.7445403,24.7625076 C64.7716209,22.2301624 63.8128604,19.7346701 62.8538751,17.2389543 C62.7066674,17.2378376 62.559235,17.2367208 62.4118025,17.2356041 C61.2833598,20.1686396 60.1546924,23.1018985 58.9363519,26.2685584 M73.282025,33.8501827 C69.5660976,34.2258579 69.5660976,34.2258579 68.2117866,30.9792386 C67.0100772,28.0982437 66.8185948,27.988132 63.6800363,28.4958071 C61.066706,28.9183858 58.5459705,29.8388122 57.0466992,32.0012893 C55.6119296,34.0710761 53.8924086,34.2057563 51.6499069,33.8530863 C51.7782361,33.4238071 51.8634143,32.9969848 52.0297253,32.6045584 C54.7455392,26.197533 57.5083246,19.8099391 60.1630079,13.3781218 C60.6749762,12.1383046 61.5161952,12.1494721 62.5243995,12.1814112 C63.484059,12.2120102 64.4279864,11.9803959 64.9511918,13.2751574 C67.6452054,19.941269 70.4309149,26.571198 73.1788672,33.2160914 C73.2411215,33.3670761 73.2348286,33.546203 73.282025,33.8501827" id="Fill-26"></path>
                            <path d="M169.853525,26.2665036 C168.62979,23.0920264 167.485391,20.1243716 166.341216,17.1567168 C166.206594,17.1663208 166.072421,17.1757015 165.938024,17.1853056 C164.976342,19.7109503 164.014884,22.2368183 163.05118,24.7676 C165.370993,25.2786254 167.44651,25.7360467 169.853525,26.2665036 M177.224923,33.8798437 C175.093445,34.091803 173.418648,34.2423411 171.909713,32.2129807 C169.733286,29.2855289 166.366837,28.2701787 162.737436,28.4390315 C162.20996,28.4636 161.617084,29.0398437 161.228726,29.5046355 C160.872056,29.9314579 160.750244,30.5521482 160.525949,31.0879655 C159.2049,34.2412244 159.2049,34.2412244 155.50448,33.8496914 C155.665173,33.3507269 155.783838,32.8727574 155.969702,32.4218132 C158.534262,26.1919046 161.152987,19.9834376 163.642483,13.7240467 C164.161418,12.4190112 164.914537,12.1827066 166.149284,12.1965543 C167.405831,12.2108487 168.238285,12.3531228 168.809136,13.7588893 C171.318859,19.9425645 173.99377,26.0596812 176.602605,32.2036 C176.823304,32.723336 176.997257,33.2629503 177.224923,33.8798437" id="Fill-28"></path>
                            <path d="M187.317327,23.3569421 C188.420823,23.3042315 189.537129,23.337734 190.625568,23.1804954 C192.909198,22.8508305 193.982128,21.5328406 193.954035,19.2622619 C193.926616,17.0452873 192.926053,15.9877239 190.52241,15.7230538 C189.599384,15.6214294 188.663997,15.6044548 187.734003,15.6008812 C183.606793,15.5850234 183.606793,15.5917239 183.606793,19.6835005 C183.606793,23.3149523 183.606793,23.3149523 187.317327,23.3569421 M183.607018,33.8841096 L179.958739,33.8841096 L179.958739,12.0210234 C184.171577,12.2070741 188.38419,12.1090234 192.508028,12.6631553 C195.957858,13.1266071 197.694684,15.6055716 197.876053,19.0100995 C198.04596,22.1964142 196.321944,25.0858964 193.129447,25.9145259 C190.69344,26.5470538 188.068873,26.5986477 185.52409,26.632597 C183.958519,26.6533685 183.473745,27.1103431 183.579375,28.6228711 C183.699163,30.3395411 183.607018,32.0709523 183.607018,33.8841096" id="Fill-30"></path>
                            <path d="M108.473884,28.5194152 C111.07373,29.4023188 113.281171,30.2095066 115.529966,30.878664 C116.160599,31.0665015 116.93417,30.940532 117.606606,30.795801 C118.871244,30.5235371 119.636499,29.6940142 119.797641,28.3970193 C119.953165,27.1442477 119.388606,26.2233746 118.254095,25.7527756 C117.183187,25.3089787 116.046879,25.0219736 114.942034,24.6588061 C113.560978,24.2049584 112.126883,23.8627858 110.814375,23.2599635 C108.320159,22.1146234 107.231946,20.1415472 107.433317,17.525669 C107.633339,14.9283289 109.059793,13.133933 111.597834,12.2869888 C115.050361,11.1351716 120.02351,12.1849178 122.844279,14.7342376 C122.255673,15.5534863 121.656953,16.3868061 121.045423,17.2384406 C119.595371,16.5963086 118.275221,15.8494254 116.856633,15.4362274 C115.775162,15.1213036 114.489623,14.946867 113.443662,15.2381157 C112.597498,15.4735269 111.482316,16.4312528 111.380956,17.1875168 C111.266561,18.0373645 111.945739,19.2613239 112.664922,19.8811208 C113.448381,20.5560853 114.663575,20.754197 115.708863,21.106197 C117.142958,21.5888569 118.629194,21.934603 120.030252,22.4938721 C122.431423,23.4524914 123.773823,25.2480041 123.672238,27.873933 C123.566833,30.5896487 122.34647,32.6304 119.706395,33.6823797 C115.850227,35.2188061 109.684583,33.7761868 106.731889,30.5867452 C107.391964,29.8034558 108.059006,29.0116792 108.473884,28.5194152" id="Fill-32"></path>
                            <path d="M77.3313834,12.4865076 C77.5008409,12.3998477 77.5968068,12.3156447 77.7017625,12.302467 C80.9693244,11.8946294 81.027758,11.946 81.027758,15.1756447 C81.0279827,20.7350558 81.027758,26.294467 81.027758,31.8538782 L81.027758,33.8600102 L77.3313834,33.8600102 L77.3313834,12.4865076 Z" id="Fill-34"></path>
                            <path d="M30.9967989,35.0875208 C28.45696,37.6442112 25.2680588,40.8539777 22.1513006,43.9911553 C20.5302177,42.328536 18.8659839,40.6212467 17.5752756,39.2976731 C22.0667966,37.8885563 26.9507217,36.3568203 30.9967989,35.0875208" id="Fill-36"></path>
                        </g>
                    </g>
                </g>
            </g>
        </g>
    </g>
</svg>
